img/svg/editors/graph-up-arrow.svg

<svg width="24" height="24" viewBox="0 0 24 24" fill="none" xmlns="http://www.w3.org/2000/svg">
<g clip-path="url(#clip0_13945_59001)">
<path d="M1 0.5V23H23.5V23.5H0.5V0.5H1ZM15.75 5H21.75C21.8163 5 21.8799 5.02636 21.9268 5.07324C21.9736 5.12013 22 5.1837 22 5.25V11.25C22 11.3163 21.9736 11.3799 21.9268 11.4268C21.8799 11.4736 21.8163 11.5 21.75 11.5C21.6837 11.5 21.6201 11.4736 21.5732 11.4268C21.5264 11.3799 21.5 11.3163 21.5 11.25V5.94922L20.6133 7.0332L15.1934 13.6582C15.1713 13.6851 15.1444 13.7079 15.1133 13.7236C15.0821 13.7393 15.0475 13.7483 15.0127 13.75C14.9779 13.7517 14.9427 13.7459 14.9102 13.7334C14.8777 13.7209 14.8478 13.7013 14.8232 13.6768L10.9434 9.79688L10.5303 9.38281L10.1855 9.85645L4.70801 17.3867C4.66822 17.4345 4.61256 17.466 4.55078 17.4746C4.4867 17.4835 4.42145 17.4678 4.36914 17.4297C4.31687 17.3916 4.28176 17.3342 4.27051 17.2705C4.2599 17.21 4.27149 17.1478 4.30371 17.0957L10.2988 8.85352V8.85254C10.32 8.8234 10.3475 8.79887 10.3789 8.78125C10.4104 8.76367 10.4455 8.75284 10.4814 8.75C10.5172 8.74721 10.5532 8.75232 10.5869 8.76465C10.6207 8.77711 10.6522 8.79681 10.6777 8.82227L14.5908 12.7373L14.9814 13.1279L15.3311 12.7002L20.5547 6.31641L21.2227 5.5H15.75C15.6837 5.5 15.6201 5.47364 15.5732 5.42676C15.5264 5.37988 15.5 5.31631 15.5 5.25C15.5 5.18369 15.5264 5.12012 15.5732 5.07324C15.6201 5.02636 15.6837 5 15.75 5Z" fill="#FBFBFB" stroke="#FBFBFB"/>
</g>
<defs>
<clipPath id="clip0_13945_59001">
<rect width="24" height="24" fill="white"/>
</clipPath>
</defs>
</svg>

<svg width="24" height="24" fill="none" xmlns="http://www.w3.org/2000/svg"><g clip-path="url(#clip0_13945_59001)"><path d="M1 .5V23h22.5v.5H.5V.5H1zM15.75 5h6a.25.25 0 01.25.25v6a.25.25 0 01-.5 0v-5.3l-.887 1.083-5.42 6.625a.25.25 0 01-.18.092.253.253 0 01-.19-.073l-3.88-3.88-.413-.414-.345.473-5.477 7.53a.25.25 0 01-.404-.29l5.995-8.242v-.001a.252.252 0 01.288-.088.253.253 0 01.09.057l3.914 3.915.39.39.35-.427 5.224-6.384.668-.816H15.75a.25.25 0 010-.5z" fill="#FBFBFB" stroke="#FBFBFB"/></g><defs><clipPath id="clip0_13945_59001"><path fill="#fff" d="M0 0h24v24H0z"/></clipPath></defs></svg>
